!!!COM: Schubert, Franz
!!!CDT: 1797/01/31-1828/11/19
!!!SCT: D. 365
!!!OPR: 36 Originaltänze
!!!OPS: 9
!!!ONM: 28
**kern	**kern
*part1	*part1
*staff2	*staff1
*I"Klavier	*
*I'Klav.	*
*clefF4	*clefG2
*k[f#c#g#]	*k[f#c#g#]
*M3/4	*M3/4
=1	=1
*A:	*
4r	(4eeM
=	=
*^	*
4r	2.A	4a)
4c# 4e	.	8eeL
.	.	8aaJ
4c# 4e	.	(4a
=	=	=
4r	2.B	2g#)
4d 4e	.	.
4d 4e	.	(4eeM
=	=	=
4r	2.A	4a)
4c# 4e	.	8eeL
.	.	8aaJ
4c# 4e	.	(4a
=	=	=
4r	2.B	2g#)
4d 4e	.	.
4d	.	(4eeM
=	=	=
4r	2.E	4g#)
4B 4d 4e	.	8ddL
.	.	8bbJ
4B 4d 4e	.	(4g#
=	=	=
4r	2.A	4a)
4c# 4e	.	8cc#L
.	.	8aaJ
4c#	.	[4e
!!linebreak:original
=	=	=
4r	2.E	4e]
4B 4d	.	12g#L
.	.	12b
.	.	12ddJ
4B 4d	.	(4e
*v	*v	*
=	=
4A 4c#	4a)
4r	4r
=:|!|:	=:|!|:
4r	(4a
=	=
*^	*
4r	2.E	4g#^)
4B 4d 4e	.	(12bL
.	.	12dd
.	.	12ff#J
4B 4d 4e	.	8g#)
.	.	8r
=	=	=
4r	2.E	4r
4B 4d 4e	.	(12bbL
.	.	12ddd
.	.	12fff#J
4B 4d 4e	.	8gg#)
.	.	8r
=	=	=
4r	2.A	4a
4c# 4e	.	(12cc#L
.	.	12ee
.	.	12aaJ
4c# 4e	.	8a)
.	.	8r
!!linebreak:original
=	=	=
4r	2.A	4r
4c# 4e	.	(12ccc#L
.	.	12eee
.	.	12aaaJ
4c# 4e	.	8aa)
.	.	8r
=	=	=
4r	2.E	4gg#^
4B 4d 4e	.	(12bbL
.	.	12ddd
.	.	12fff#J
4B 4d 4e	.	8gg#)
.	.	8r
=	=	=
4r	2.A	4ee^
4c# 4e	.	(12aaL
.	.	12ccc#
.	.	12eeeJ
4c# 4e	.	8ee)
.	.	8r
=	=	=
4r	2.E	(4e
4B 4d	.	12g#L
.	.	12b
.	.	12ddJ
4B 4d	.	4e
*v	*v	*
=	=
4A 4c#	4a)
4r	4r
=:|!	=:|!
*-	*-
!!!system-decoration: {(s1,s2)}
!!!AGN: Walzer
!!!EED: Wolfgang Drescher
!!!END: 2025/12/03
!!!ENC: Florian Moldaschl
!!!EEV: 2025/12/03
!!!title: @{OPR}, @{SCT} №@{ONM}